X:1
T:Title
L:1/8
Q:1/4=120
M:2/2
K:C
V:1 treble nm="Voice"
V:1
 z/ z2 | z8 | z2 z2 z z/!<(! (e ^f/^g/a/!<)!b/) |!f! c'b c'2- c'b/!p!c'/ (d'/c'/)!p!b/a/ | %4
 (b>e) (b3/4e/)b (b2 ^g) | a^g!mf! a2- ag/a/ ((.b!f!a))=g/f/ |!>(! (e>^d) (e=c/)e!>)! E3 | %7
!p! (=d/c/B/c/ d<)d (c/B/A/B/ c<)c | (.B3/2 b/) (b3 | %9
!>(! (f>e) (d/c/)B/!>(!c/ (e>!>)!d) (c/B/)A/!>)!c/ |!mf!!p! B ^G2 (E =F/E/) (E2 D) | %11
 CB,!f! C2- C(A,/B,/ C/A,/)!tenuto!B,/!tenuto!C/ | D^C D2- D(B,/=C/ D/B,/)!tenuto!C/!tenuto!D/ | %13
!mf! E2 E F2 (A>^F) | (G/^F/G/B/ .e)^G ((A/e/)A) (B/e/)B | %15
 c!f!A,/B,/ (C/B,/)B,/C/ (!>!B,/A,/)A/B/ (c/B/)c/A/ | %16
!<(! a^g/a/ (b/a/)g/.a/ (g/^f/)f/g/ (a/g/!<)!b/a/) |!ff! c'!f!b c'2- c'b/c'/ (d'/c'/)b/a/ | %18
 (c'>_b) (c'/b/)b/a/!>(! b/(e/f/)(^c/ d/)(A/_B/)!>)!(F/ | %19
 _D8) z (E2 ^D2)!f! (E2 !tenuto!=F/)(F/E/)(F/ !>!^F/)(F/^E/)(F/ =G/)((G/F/))G/ | %20
 ^GB,/E/ (G/E/)G/B/ (e>B) e/B/e/B/ | e(^G/B/) e/B/e/^f/ ^g/e/g/a/ b/e/g/b/ | e'D=CB, | A,2 z2 z4 | %24
 z8 | A/B/ c2 B/c/!>)!!>(! (d/^c/d/) z/ (f/e/f/) z/ | %26
 (e/4a/4) z/ a2 (^g/a/) b/a/!<(!g/a/ c'/b/a/!<)!c'/ | %27
!f! (b/d'/e/) z/ (a/c'/!mf!e/) z/ (^g/b/e/) z/!>)!!>(! (a/c'/!ped!e) z/ | %28
 .b(d'/b/) (b/^g/)!>(!(g/e/) (b/g/)(g/e/) (e/(d/)!>)!(d/B/)) | %29
!mf! A/B/ c2 B/c/!>)!!>(! d/^c/d/) z/ (f/e/f/) z/ | %30
 (e/4a/4) z/ a2 (^g/a/)!<(! b/a/g/a/ d'/c'/!<)!b/a/ | %31
!mf! (.=g/4f/e/) z/ (f/e/d/) z/ (e/c'/)c' (e/^c'/)c' | %32
 d'(d'/b/) (b/=g/)!>(!(g/f/) (f/d/)(d/B/) (B/G/)(G/!>)!F/) |!mf! E/F/ G2 F/E/ D/E/ F2 E/D/ | %34
!f! E/F/G/A/ B/c/d/e/ d/B/c/d/!<(! e/^f/g/!<)!a/ |!f! b/c'/ d'2!mf! c'/b/ a/b/ c'2 b/a/ | %36
 b/d'/c'/b/ a/c'/b/a/ g/b/a/g/ ^f/a/g/f/ |!f! g/a/ b2!>(! a/g/ ^f/g/ a2 g/!>)!f/ | %38
!mf! g/b/a/g/ ^f/e/d/c/ B/A/G A/G/^F | %39
 E/(G,/C/)(G,/ (B,/)(G,/)(^A,/)(G,/) B,/)(G,/=C/)(G,/ B,/)(G,/(A,/)(G,/ | %40
!mf! B,))(G,/.B,/ E/)(E/G/B/ e/)(e/g/b/ e')(b | %41
 c'/)(c'/d'/c'/) a/(a/b/a/) ^f/(f/!>(!(g/f/) e/(e/f/!>)!e/)) | %42
!mf! ^d(^f/d/) (d/B/)(B/A/) (=c>B) (^F>G) | %43
 E/!f!(G,/!>!C/)(G,/ (B,/)(G,/)^A,/)(G,/ B,/)(G,/!>)!!>(!=C/)(G,/ B,/)(G,/A,/)G,/ | %44
!mf! B,(G,/B,/ E/)(E/G/B/ e/)(e/g/b/ e')(_B, | %45
 A,=B,/)A,/ (^C/B,/)(D/C/) (E/D/)(^F/E/) (G/F/)(A/G/) | %46
 (B/A/)(^c/B/) (d/c/)(e/d/) (c/d/)e/^f/ g/a/b/^c'/ | (d'>a) d'/a/d'/a/ (d'>_b) d'/b/d'/b/ | %48
 (d'/=c'/)c'/_b/ (c'/b/)b/a/ (d'/c'/)c'/b/ (c'/b/)b/a/ | %49
 (c'/a/)(a/g/) (g/_e/)(e/!mp!c/) (e/c/)(c/A/) (A/G/)(G/_E/) | D(d^A)(B ^F)(GD)(B, | %51
 E) D3 D (!fermata!C2 A,) | G,4 z4 | x8 |[M:2/4]!mf! e2 G2 | e2 ^G2 | (ed)(.d.A) | d2 c2 | %58
 B/c/d/B/ c/d/e/c/ | d/e/!<(!f/d/ e/f/g/!<)!e/ |!<(! (f!mf! d'2) (d'/c'/)!<)! | %61
!>(! (c'/b/)(b/a/) (a/g/)(g/!>)!f/) | e2 G2 | e2 ^G2 | (ed)(.d.A) | d2 c2 | B/c/d/B/ c/d/e/c/ | %67
 d/e/f/d/ .e/f/g/e/ |!<(! .f/e/d/e/ f/g/a/!<)!b/ |!f! (d'/c'/)c'/b/ c' z | .c/B/A/^G/ A/B/c/d/ | %71
 eB eB | e/=d/c/B/ c/d/e/f/ |!>(! gd _gd!>)! | (=f/d'/)(d'/f/) .e/g/f/e/ | (d/b/)(b/d/) c/.e/d/c/ | %76
 (B/A/)A A^D | (Ee) (e=d) | c/B/(A/^G/) A/B/c/d/ |!>(! eB!>)!!>(! _eB!>)! | e/=d/c/B/ c/d/e/f/ | %81
!>(! gd (f8!>)!!>)!!>(! g)d |!>(! (g/^f/g) (^g/^^f/g) | x8!>)!!<(! (a/^g/a)!>)!!>(! (^a/g/a)!<)! | %84
!ff! b2 B2 |!>(! =c2!>)!!>(! c'2!>)! |!mf! b/c'/d'/b/ (a/d'/).a | g/a/b/g/ (^f/b/).f | %88
 e/^f/g/e/ .dd' | =c/d/!ff!e/c/ Bb | B/c/d/B/!mf! c/d/e/c/ | ^c/d/e/c/ d/(e/^f/)d/ | %92
 (e/^d/)e/^f/ g/a/b/^c'/ |!f! d' (^C/E/ D) z |!mf! b/=c'/d'/b/ (a/d'/).a | g/a/b/g/ (^f/b/).f | %96
 e/^f/g/e/ .dd' | =c/d/e/c/ .Bb | A/B/c/B/ d/c/B/A/ | (G/^F/)(A/G/) (B/A/)(=c/B/) | bB^c^d | %101
!f! (.^f/e/)(e/^d/) ee' |!mf! e2 G2 | .e2 ^G2 | (A/B/)c/B/ d/c/B/A/ | _B/A/B/c/ d/e/f/g/ | a2 c2 | %107
 a2 ^c2 |!mf! x4 | x4 |!f!!>(! x4!>)! |!>(! x4!>)! | x4 | e/f/g/a/ b/c'/d'/b/ | c'2 ^D2 | %115
 !>!E2 c2 | =D/!f!E/=F/G/ A/B/c/d/ | e/f/g/a/ b/c'/d'/b/ |!f! c'(c'/e/) (d/b/)(b/d/) | %119
 (d/_b/)(b/d/) (c/a/)(a/c/) | (c/_a/)(a/c/) (_B/g/)(g/B/) | (=B/g/)(g/B/) (B/d/)(d/.f/) | %122
!f! (=e/c'/)(c'/e/) (d/b/)(b/d/) | (d/_b/)(b/d/) (c/a/)(a/c/) | (c/_a/)(a/c/) (_B/g/)(g/B/) | %125
 (=B/c/)B/A/ (G/F/)=E/D/ | (C/B,/)C/D/ (C/B,/)C/D/ | C/C/D/E/ F/G/A/B/ | (c/B/)c/d/ (c/B/)c/d/ | %129
 c/c/d/e/ f/g/a/b/ |!f! (c'/d'/)c'/b/ (c'/d'/)c'/b/ | (c'/d'/)c'/b/ (c'/d'/)c'/b/ | %132
 (c'/d'/)c'/b/ (c'/d'/)c'/b/ || [Ac]8 c'2 C2 z4 | z6 | z4 z z/!mf! ((e ^f/)^g/a/b/) | %136
!f! c'b c'2- c'b/c'/ (d'/c'/)b/a/ | ((b3 e2)) (b3/4e/)b (b2 ^g) | a^g a2- ag/a/ (b/a/)=g/!f!f/ | %139
 (e>^d) (e3/2=c)e E3 |!p! (G/!p!F/E/F/ G<)G (F/E/D/E/ F<)!f!F | %141
!f! _E[G,E_B_b-] b/(^f/g/)!>)!(d/!>(! _e/)!>)!(A/B/)F/ G/!>(!(D/!>)!!>(!(E/)(_B,/) | %142
 A,/=F/d/a/) (a/d/F/!p!A,/) A,2!p! [A,Fda]2 | (A,/E/d/a/) (a/d/E/A,/) A,2 A,2 ||[K:F] x4 | x4 | %146
 x4 | x4 | x4 | x4 | x4 | x4 | x4 | x4 | x4 | x4 | x4 | x4 ||[K:C] x4 | x4 ||[K:F] x4 | x4 | x4 | %163
 x4 | x4 ||[K:A] x4 | x4 | x4 | x4 | x4 | x4 | x4 | x4 | x4 | x4 | x4 | x4 | x4 | x4 | x4 | x4 | %181
 x4 | cA!>!aA | a/b/a/=g/ f/e/d/c/ | dA (a/d'/)f | e/f/=g/f/ (e/c'/)c' | d/e/f/e/ (d/b/)b | %187
 B,2!f! ^B,2 |!f! (C/=D/C/) z/!>(! ((c/d/c/)) z/!>)! |!mf! a/b/a/^g/ a/b/a/g/ | %190
 (f/g/a/) z/ (a/g/f/) z/ | g/!f!a/g/!f!f/ g/a/g/f/ | (e/f/!mf!g/) z/!>(! (g/f/e/) z/!>)! | %193
 =d/e/d/c/ (B/b/)(b/d/) | c/d/c/B/ (A/a/)(a/c/) | B/c/B/A/ G/F/A/F/ | (E/c/)(c/A/) (B/g/)(g/e/) | %197
!f! a2!>(! =c2!>)! | a2 !>!^c2 | d(dd')(d | ^d)(d!>!^d')(d' | e')(e/=d'/) (d'/c'/)(c'/b/) | %202
 (b/a/)(a/g/) (g/f/)(f/e/) | d(E/F/) G/A/B/c/ | d/c/B/c/ d/e/f/g/ | a2!>(! =c2!>)! | %206
 a2!>(! ^c2!>)! | d(dd')(d | ^d)dd'(d' | e')(e/=d'/) (d'/c'/)(c'/b/) | (b/a/)(a/g/) (g/f/)(f/e/) | %211
 d(b/a/) g/f/e/d/ | c/B/A/G/ F/E/D/B,/ |!f! (A,/C/E/A/) (c/e/a/c'/) | (d'/c'/b/a/) d'(d/e/ | %215
 =f)(D/E/ =F)(B,/^C/ | D)(B,/C/!>(! D)C/B,/!>)! | (A,/!f!C/E/A/) (c/e/a/c'/) | %218
 (d'/c'/b/a/) d'(d/e/ | =f)(D/E/ =F)(B,/^C/ | D)(B,/C/ D)C/B,/ | (A,/C/E/A/) (c/e/)c/B/ | %222
 A/B/c/d/ e/f/g/a/ | (b/a/)g/a/ (b/a/)g/a/ | (b/a/)g/a/ (b/a/)g/a/ | (c'/b/)a/b/ (c'/b/)a/b/ | %226
 (c'/b/)a/b/ (c'/b/)a/b/ | (c'/d'/c'/b/) (a/b/a/f/) | (e/f/e/d/) (c/d/c/B/) | %229
 (A/B/A/F/) (E/F/E/D/) | (C/D/C/B,/) (A,/B,/C/B,/) | A,2 [A,Ec]2 | A,2 [A,Eca]2 | A,4- | A,2 z2 |] %235

